X: 23545
T: Liffey Banks, The
R: reel
M: 4/4
K: Gmajor
|G2GF GBdB|cBcd efge|dcBG AFGE|DEGB AE~E2|
GG ~G2 GBdB|cBcd g2dc|BG~G2 AE~E2|DG~G2FGED|
DG~G2 DBGD|~c3d efge|dcBG AFGE|DEGB AE~E2|
GDB,F GBdB|cBcd g2dc|B/B/B GB AFGE|DEGB AGG2|
~g3e d2B^c|dgbg aged|~g3e ddBd|gab/a/g a2g2|
a/g/f ge d2Bd|ea~a2 aged|ga b/a/g efge|~d3c Bcdc|

